actions/22x22-dark/document-open-recent.svg

<svg viewBox="0 0 22 22" xmlns="http://www.w3.org/2000/svg"><path d="m10.986328 3c-1.0845986 0-2.1154539.2156799-3.1054686.640625-1.9665671.8439007-3.4069504 2.2753966-4.2519532 4.2460938-.4234299.9873101-.6289062 2.0183846-.6289062 3.1035152 0 1.08534.2054762 2.127716.6289062 3.115235.8450028 1.970698 2.2855686 3.409798 4.2519532 4.253906.9901973.424947 2.0208432.640625 3.1054686.640625 1.084624 0 2.12428-.217929 3.115234-.640625 1.982985-.846175 3.416071-2.286556 4.259766-4.253906.424711-.990684.638672-2.029895.638672-3.115235 0-1.0851306-.213752-2.1128572-.638672-3.1035152-.843513-1.9675324-2.276781-3.3999437-4.259766-4.2460938-.991111-.422905-2.030453-.640625-3.115234-.640625zm-.49414 2.9355469c.407916 0 .740234.3340689.740234.7421875v5.0820316l2.880859 2.251953c.33375.247359.383956.7175.136719 1.039062-.135987.185508-.359532.283203-.582031.283203-.160681 0-.319092-.061211-.455078-.160156l-3.177735-2.472656c-.1730708-.136054-.285156-.347069-.285156-.582031v-5.4414066c0-.4081186.334269-.7421875.742188-.7421875z" fill="#f2f2f2"/></svg>

<svg xmlns="http://www.w3.org/2000/svg" viewBox="0 0 22 22">
  <defs id="defs3051">
    <style type="text/css" id="current-color-scheme">
      .ColorScheme-Text {
        color:#f2f2f2
      }
      </style>
  </defs>
    <path
       style="fill:currentColor;fill-opacity:1;stroke:none"
       class="ColorScheme-Text"
       d="M 10.986328 3 C 9.9017294 3 8.8708741 3.2156799 7.8808594 3.640625 C 5.9142923 4.4845257 4.473909 5.9160216 3.6289062 7.8867188 C 3.2054763 8.8740289 3 9.9051034 3 10.990234 C 3 12.075574 3.2054762 13.11795 3.6289062 14.105469 C 4.473909 16.076167 5.9144748 17.515267 7.8808594 18.359375 C 8.8710567 18.784322 9.9017026 19 10.986328 19 C 12.070952 19 13.110608 18.782071 14.101562 18.359375 C 16.084547 17.5132 17.517633 16.072819 18.361328 14.105469 C 18.786039 13.114785 19 12.075574 19 10.990234 C 19 9.9051034 18.786248 8.8773768 18.361328 7.8867188 C 17.517815 5.9191864 16.084547 4.4867751 14.101562 3.640625 C 13.110451 3.21772 12.071109 3 10.986328 3 z M 10.492188 5.9355469 C 10.900104 5.9355469 11.232422 6.2696158 11.232422 6.6777344 L 11.232422 11.759766 L 14.113281 14.011719 C 14.447031 14.259078 14.497237 14.729219 14.25 15.050781 C 14.114013 15.236289 13.890468 15.333984 13.667969 15.333984 C 13.507288 15.333984 13.348877 15.272773 13.212891 15.173828 L 10.035156 12.701172 C 9.8620852 12.565118 9.75 12.354103 9.75 12.119141 L 9.75 6.6777344 C 9.75 6.2696158 10.084269 5.9355469 10.492188 5.9355469 z "
        />
</svg>
